svgs/solid/objects-align-center-horizontal.svg

<svg xmlns="http://www.w3.org/2000/svg" viewBox="0 0 512 512"><!--! Font Awesome Pro 6.6.0 by @fontawesome - https://fontawesome.com License - https://fontawesome.com/license (Commercial License) Copyright 2024 Fonticons, Inc. --><path d="M256 0c-13.3 0-24 10.7-24 24l0 40L80 64c-26.5 0-48 21.5-48 48l0 64c0 26.5 21.5 48 48 48l152 0 0 64-88 0c-26.5 0-48 21.5-48 48l0 64c0 26.5 21.5 48 48 48l88 0 0 40c0 13.3 10.7 24 24 24s24-10.7 24-24l0-40 88 0c26.5 0 48-21.5 48-48l0-64c0-26.5-21.5-48-48-48l-88 0 0-64 152 0c26.5 0 48-21.5 48-48l0-64c0-26.5-21.5-48-48-48L280 64l0-40c0-13.3-10.7-24-24-24z"/></svg>

<svg xmlns="http://www.w3.org/2000/svg" viewBox="0 0 512 512"><!--! Font Awesome Pro 6.4.2 by @fontawesome - https://fontawesome.com License - https://fontawesome.com/license (Commercial License) Copyright 2023 Fonticons, Inc. --><path d="M256 0c-13.3 0-24 10.7-24 24V64H80c-26.5 0-48 21.5-48 48v64c0 26.5 21.5 48 48 48H232v64H144c-26.5 0-48 21.5-48 48v64c0 26.5 21.5 48 48 48h88v40c0 13.3 10.7 24 24 24s24-10.7 24-24V448h88c26.5 0 48-21.5 48-48V336c0-26.5-21.5-48-48-48H280V224H432c26.5 0 48-21.5 48-48V112c0-26.5-21.5-48-48-48H280V24c0-13.3-10.7-24-24-24z"/></svg>
